static/icons/tip.svg

<svg xmlns="http://www.w3.org/2000/svg" viewBox="0 0 24 24" width="20" height="20"><path d="M9.97308 18H11V13H13V18H14.0269C14.1589 16.7984 14.7721 15.8065 15.7676 14.7226C15.8797 14.6006 16.5988 13.8564 16.6841 13.7501C17.5318 12.6931 18 11.385 18 10C18 6.68629 15.3137 4 12 4C8.68629 4 6 6.68629 6 10C6 11.3843 6.46774 12.6917 7.31462 13.7484C7.40004 13.855 8.12081 14.6012 8.23154 14.7218C9.22766 15.8064 9.84103 16.7984 9.97308 18ZM10 20V21H14V20H10ZM5.75395 14.9992C4.65645 13.6297 4 11.8915 4 10C4 5.58172 7.58172 2 12 2C16.4183 2 20 5.58172 20 10C20 11.8925 19.3428 13.6315 18.2443 15.0014C17.624 15.7748 16 17 16 18.5V21C16 22.1046 15.1046 23 14 23H10C8.89543 23 8 22.1046 8 21V18.5C8 17 6.37458 15.7736 5.75395 14.9992Z" fill="currentColor"></path></svg>

<svg xmlns="http://www.w3.org/2000/svg" width="20" height="20" viewBox="0 0 24 24"><path fill="currentColor" d="M9.973 18H11v-5h2v5h1.027c.132-1.202.745-2.193 1.74-3.277.113-.122.832-.867.917-.973a6 6 0 1 0-9.37-.002c.086.107.807.853.918.974.996 1.084 1.609 2.076 1.741 3.278M10 20v1h4v-1zm-4.246-5a8 8 0 1 1 12.49.002C17.624 15.774 16 17 16 18.5V21a2 2 0 0 1-2 2h-4a2 2 0 0 1-2-2v-2.5C8 17 6.375 15.774 5.754 15"/></svg>
